X:93
T:T060- The Unfortunate Rake
S:Crosby's Irish Musical Repository, 1808
Q:1/4=60
L:1/8
M:6/8
K:Em
"Slight timing diffs. in Holden's Colln's, c 1805, & c 1807"
B|B e e e f g|f ^d B A G F|E e e e f g|f ^d BB2A|B e e e f g|\
f ^d B A G F|G B e G3/2 A/ B|A G FE2||F|G B B B3/2 A/2 G|\
F ^D F A3/2 G/ F|G B E G3/2 A/ B|A G FE2F|G B B B3/2 A/ G|\
F ^D F A3/2 A/ g|f3/2 e/ ^d e =d B|A3/2 G/ F E2|]

